!!!!SEGMENT: pl-wnifc--3111-n--001-002_sowinski-wojciech--grandes-etudes-de-concert-op-60-etude-de-notes-doubles.krn
!!!cenid: 18xx:3852
!!!COM: Sowiński, Wojciech
!!!COM-rismID: pe30008543
!!!CDT: ~1803-1880/03/05
!!!CNT: Polish
!!!GTL: Grandes Études de concert op. 60
!!!OTL: Étude de notes doubles
!!!OMV: 002
!!!PDT: 1843
!!!AGN: Secular; Etude
!!!YEC: Copyright 2022 Narodowy Instytut Fryderyka Chopina (https://polishscores.org)
!!!YEM: License CC-BY-4.0 (https://creativecommons.org/licenses/by/4.0)
!!!SMS-siglum: PL-Wnifc
!!!SMS-shelfmark: 3111/n
!!!SMS-shelfwork: 001-002 G
!!!SMS-variant:
!!!SMS-altvar:
!!!NIFC-rismSourceID: 1001141968
!!!NIFC-rismChildID: 1001141970
!!!NIFC-islandoraID: nifc:212151
!!!URL-pdf-islandora: https://repozytorium.nifc.pl/islandora/object/nifc%3A212151/datastream/PDF/view
!!!URL-scan: https://polish.musicsources.pl/pl/lokalizacje/galeria/druki-muzyczne/16829 @EN{Scan on Polish Music Sources Website} @PL{Skany w portalu Dziedzictwo Muzyki Polskiej w otwartym dostępie}
!!!IIIF:
!!!ONB-nifc:
!!!AIN: 2 piano
!!!key: G
**kern	**fing	**kern	**fing	**dynam
*part2	*	*part1	*	*
*staff2	*	*staff1	*	*
*Ipiano	*	*Ipiano	*	*
*I"Piano	*	*I"Piano	*	*
*I'P-no	*	*I'P-no	*	*
*clefF4	*	*clefG2	*	*
*k[f#]	*	*k[f#]	*	*
*G:	*	*G:	*	*
*M3/4	*	*M3/4	*	*
=1	=1	=1	=1	=1
*	*	*^	*	*
!	!	!LO:TX:a:t=Allegro appassionato.	!	!	!
4G: 4BB: 4EE:\	.	16r	4e\	.	.
.	.	(16eeLL 16g/	.	3 1	fp
.	.	16ff# 16b/	.	2 4	.
.	.	16ggJJ 16ee/	.	3 5	.
8r	.	16ff#LL 16b/	8ryy	2 4	.
.	.	16eeJJ 16g/)	.	1 5	.
(16gLL 16e\	5 1	8.r	8ryy	.	.
16f#JJ 16B\)	5 2	.	.	.	.
16e 16G\	.	.	4ryy	.	.
8ryy	.	16B^/LL	.	.	.
.	.	16G^/	.	.	.
48BB\L	.	16A^/JJ	.	.	.
48AA#X\	.	.	.	.	.
48BB\	.	.	.	.	.
=2	=2	=2	=2	=2	=2
8E 8EE\J	.	16r	4B 4G/	.	p
.	.	(16eeLL 16g/	.	.	.
8r	.	16ff# 16b/	.	.	.
.	.	16ggJJ 16ee/	.	.	.
8ryy	.	16ff#LL 16b/	4r	.	.
.	.	16eeJJ 16g/)	.	.	.
16gLL 16e\	.	8.r	.	.	.
16aJJ 16B\	.	.	.	.	.
16e 16G\	.	.	4r	.	.
16r	.	16BLL 16G^/	.	.	.
16r	.	16A 16F#^/	.	.	.
48EE\LLL	.	16GJJ 16E^/	.	.	.
48DD#X\	.	.	.	.	.
48EE\JJJ	.	.	.	.	.
=3	=3	=3	=3	=3	=3
4BB: 4BBB:\	.	16r	4B: 4D#X:/	.	p
.	.	(16ff#LL 16b/	.	.	.
.	.	16gg 16dd#X/	.	.	.
.	.	16bbJJ 16ff#/	.	.	.
8ryy	.	16ggLL 16dd#/	8ryy	.	.
.	.	16ff#JJ 16b/)	.	.	.
16bLL 16d#X\	.	8.r	8ryy	.	.
16f#\JJ	.	.	.	.	.
8B\L	1	.	4ryy	.	.
.	.	16A/LL	.	4	.
.	.	8qA/	.	.	.
8BB\J	5	16G/	.	.	.
.	.	16F#/JJ	.	.	.
=4	=4	=4	=4	=4	=4
4EE\	.	16r	4G 4E\	.	p
.	.	(16eeLL 16g/	.	.	.
.	.	16ff# 16b/	.	.	.
.	.	16ggJJ 16ee/	.	.	.
8ryy	.	16ff#LL 16b/	8ryy	.	.
.	.	16eeJJ 16g/)	.	.	.
16gLL 16e\	.	8.r	8ryy	.	.
16f#JJ 16B\	.	.	.	.	.
16e 16G\	.	.	4ryy	.	.
16ryy	.	(16B/LL	.	.	.
16r	.	16G/	.	.	.
(48BB\LLL	.	16A/JJ)	.	.	.
48AA#X\	.	.	.	.	.
48BB\JJJ)	.	.	.	.	.
!!LO:LB:g=original
=5	=5	=5	=5	=5	=5
4E 4EE\	.	16r	4B 4G\	.	.
.	.	(16eeLL 16g/	.	.	.
.	.	16ff# 16b/	.	.	.
.	.	16ggJJ 16ee/	.	.	.
8r	.	16ff#LL 16b/	8ryy	.	.
.	.	16eeJJ 16g/)	.	.	.
16gLL 16e\	.	8.r	8ryy	.	.
16f#JJ 16B\	.	.	.	.	.
16e 16G\	.	.	4ryy	.	.
8ryy	.	16e/LL	.	.	.
.	.	16G/^	.	.	.
48BB\L	.	16A/JJ^	.	.	.
48AA#X\	.	.	.	.	.
48BB\	.	.	.	.	.
*	*	*v	*v	*	*
=6	=6	=6	=6	=6
8E 8EE\J	.	(16BLL 16G/	.	<
.	.	16ee 16g/	.	.
8r	.	16ff# 16b/	.	.
.	.	16ggJJ 16ee/	.	[ >
8r	.	16ff#LL 16b/	.	.
.	.	16eeJJ 16g/)	.	.
(16gLL 16e\	.	8.r	.	]
16f#JJ 16B\	.	.	.	.
16e 16G\)	.	.	.	.
16r	.	16G^/LL	.	.
16r	.	16A^/	.	.
48DD\LLL	.	16B^/JJ	.	.
48CC\	.	.	.	.
48BBB\JJJ	.	.	.	.
=7	=7	=7	=7	=7
*	*	*^	*	*
8AA 8AAA\	.	16r	4c/	.	f
.	.	(16aaLL 16cc/	.	.	.
8r	.	16bb 16ee/	.	.	.
.	.	16cccJJ 16aa/	.	.	.
*^	*	*	*	*	*
8ryy	8ryy	.	16bbLL 16ee/	4ryy	.	.
.	.	.	16aaJJ 16cc/)	.	.	.
*v	*v	*	*	*	*	*
16bLL 16d#X\	.	8r	.	.	.
16f#JJ 16B\	.	.	.	.	.
8ryy	.	16.B/LL	4ryy	.	.
.	.	32A/K	.	.	.
.	.	8qA/	.	.	.
8D#X: 8AA: 8BBB:/	.	16G/	.	.	.
.	.	16F#/JJ	.	.	.
*	*	*v	*v	*	*
=8	=8	=8	=8	=8
8GG 8EE\	.	(16E/LL	.	p
.	.	16ee 16g/	.	.
8r	.	16ff# 16b/	.	.
.	.	16ggJJ 16ee/	.	.
8r	.	16ff#LL 16b/	.	.
.	.	16eeJJ 16g/)	.	.
(16gLL 16e\	.	8.r	.	.
16f#JJ 16B\	.	.	.	.
16e 16G\)	.	.	.	.
8.r	.	16G/LL	.	.
.	.	16F#/	.	.
.	.	16E/JJ	.	.
!!LO:LB:g=original
=9	=9	=9	=9	=9
*	*	*ped	*	*
4C: 4CC:\	.	(16e:LL 16G:/	.	.
.	.	16ccc 16ee/	.	f
.	.	16ddd 16gg/	.	.
.	.	16eeeJJ 16ccc/	.	.
8r	.	16dddLL 16gg/	.	.
.	.	16cccJJ 16ee/)	.	.
(16ccLL 16e\	.	8.r	.	.
16g\JJ	.	.	.	.
16c\)	.	.	.	.
16r	.	16c^/LL	.	.
8E: 8GG: 8CC:\	.	16G^/	.	.
*	*	*Xped	*	*
.	.	16A^/JJ	.	.
=10	=10	=10	=10	=10
4GG 4GGG\	.	(16B/LL	.	.
.	.	16bb 16dd/	.	.
.	.	16ccc 16gg/	.	.
.	.	16dddJJ 16bb/	.	.
8r	.	16cccLL 16gg/	.	.
.	.	16bbJJ 16dd/)	.	.
(16bLL 16d\	.	8.r	.	.
16g\JJ	.	.	.	.
16B\)	.	.	.	.
16r	.	16G/LL	.	.
.	.	8qB/	.	.
8GG 8GGG\L	.	16A/	.	.
.	.	16G/JJ	.	.
=11	=11	=11	=11	=11
*	*	*^	*	*
*	*	*ped	*	*	*
8FF# 8FFF#\J	.	16r	4d 4A\	.	.
.	.	(16aaLL 16dd/	.	.	.
8r	.	16ccc 16ff#/	.	.	.
.	.	16dddJJ 16aa/	.	.	.
8r	.	16cccLL 16ff#/	8ryy	.	.
.	.	16aaJJ 16dd/)	.	.	.
(16ccLL 16a\	.	8.r	8ryy	.	.
16aJJ 16f#\	.	.	.	.	.
16f# 16d\)	.	.	4ryy	.	.
16ryy	.	16c^/LL	.	.	.
8F# 8C 8DD\	.	16B^/	.	.	.
.	.	16A^/JJ	.	.	.
*	*	*Xped	*	*	*
=12	=12	=12	=12	=12	=12
4BB: 4GGG:\	.	16r	4G/	.	f
.	.	(16bbLL 16dd/	.	.	p
.	.	16ccc 16gg/	.	.	.
.	.	16dddJJ 16bb/	.	.	.
8ryy	.	16cccLL 16gg/	4r	.	.
.	.	16bbJJ 16dd/)	.	.	.
16bLL 16d\	.	8.r	.	.	.
16g\JJ	.	.	.	.	.
8B\	.	.	4r	.	.
.	.	16G^/LL	.	.	.
8ryy	.	16A^/	.	.	.
.	.	16B^/JJ	.	.	.
!!LO:LB:g=original
=13	=13	=13	=13	=13	=13
*	*	*	*ped	*	*
4C 4CC\	.	16r	4c 4G/	.	f
.	.	(16cccLL 16ee/	.	.	.
.	.	16ddd 16gg/	.	.	.
.	.	16eeeJJ 16ccc/	.	.	.
8r	.	16dddLL 16gg/	4ryy	.	.
.	.	16cccJJ 16ee/)	.	.	.
(16ccLL 16e\	.	8.r	.	.	.
16g\JJ	.	.	.	.	.
16c\)	.	.	4ryy	.	.
16ryy	.	(16c^/LL	.	.	.
8C 8CC\	.	16G#^/	.	.	.
.	.	16A^/JJ)	.	.	.
*	*	*Xped	*	*	*
=14	=14	=14	=14	=14	=14
4GG 4GGG\	.	16r	4B\	.	.
.	.	(16bbLL 16dd/	.	.	.
.	.	16ccc 16gg/	.	.	.
.	.	16dddJJ 16bb/	.	.	.
8rBByy	.	16cccLL 16gg/	4ryy	.	.
.	.	16bbJJ 16dd/)	.	.	.
16bLL 16d\	.	8.r	.	.	.
16g\JJ	.	.	.	.	.
16B\	.	.	4ryy	.	.
16ryy	.	(16B/LL	.	.	.
8GG 8GGG\	.	16A#X/	.	.	.
.	.	16B/JJ)	.	.	.
=15	=15	=15	=15	=15	=15
*	*	*	*ped	*	*
4FF# 4FFF#\	.	16r	4A#X/	.	sfz
.	.	(16aa#XLL 16ff#/	.	.	.
.	.	16ccc#X 16aa#/	.	.	.
.	.	16eeeJJ 16aa#/	.	.	.
8rBB	.	16ccc#LL 16aa#/	4ryy	.	.
.	.	16aa#JJ 16ff#/)	.	.	.
16eeLL 16cc#X\	.	8.r	.	.	.
16a#X\JJ	.	.	.	.	.
8f#\L	.	.	4ryy	.	.
.	.	16e/LL	.	.	sf
.	.	8qe/	.	.	.
8F#\J	.	16d#X/	.	.	.
.	.	16c#X/JJ	.	.	.
*	*	*v	*v	*	*
*	*	*Xped	*	*
=16	=16	=16	=16	=16
4D#X 4BB\	.	(16B/LL	.	.
.	.	16ff# 16b/	.	.
.	.	16gg#X 16dd#X/	.	.
.	.	16bbJJ 16ff#/	.	.
8r	.	16gg#LL 16dd#/	.	.
.	.	16ff#JJ 16b/)	.	.
16bLL 16d\	.	8.r	.	.
16f#JJ 16d\	.	.	.	.
16d 16B\	.	.	.	.
16r	.	16B/LL	.	p
8BB 8BBB\	.	16B/	.	.
.	.	16B/JJ	.	.
!!LO:LB:g=original
=17	=17	=17	=17	=17
*	*	*^	*	*
4G: 4BB: 4EE:\	.	16r	4e\	.	.
.	.	(16eeLL 16g/	.	.	p
.	.	16ff# 16b/	.	.	.
.	.	16ggJJ 16ee/	.	.	.
8r	.	16ff#LL 16b/	4ryy	.	.
.	.	16eeJJ 16g/)	.	.	.
16gLL 16e\	.	8.r	.	.	.
16f#JJ 16B\	.	.	.	.	.
16e 16G\	.	.	16ryy	.	.
8r	.	16B/LL	16ryy	.	.
.	.	16G/	16ryy	.	.
48BBL\	.	16A/JJ	16ryy	.	.
48AA#X\	.	.	.	.	.
48BB\	.	.	.	.	.
=18	=18	=18	=18	=18	=18
8E 8EEJ\	.	16r	4B 4G/	.	.
.	.	(16eeLL 16g/	.	.	.
8r	.	16ff# 16b/	.	.	.
.	.	16ggJJ 16ee/	.	.	.
8ryy	.	16ff#LL 16b/	8ryy	.	.
.	.	16eeJJ 16g/)	.	.	.
16gLL 16e\	.	8.r	8ryy	.	.
16f#JJ 16B\	.	.	.	.	.
16e 16G\	.	.	4ryy	.	.
16ryy	.	16BLL 16G/	.	.	.
16ryy	.	16A 16F#/	.	.	.
48EEL\	.	16GJJ 16E/	.	.	.
48DD#X\	.	.	.	.	.
48EE\	.	.	.	.	.
=19	=19	=19	=19	=19	=19
8BB 8BBBJ\	.	16r	4B 4D#X/	.	.
.	.	(16ff#LL 16b/	.	.	.
8r	.	16gg 16dd#X/	.	.	.
.	.	16bbJJ 16ff#/	.	.	.
8ryy	.	16ggLL 16dd#/	4ryy	.	.
.	.	16ff#JJ 16b/)	.	.	.
16bLL 16d#X\	.	8.r	.	.	.
16f#\JJ	.	.	.	.	.
8B\L	.	.	4ryy	.	.
.	.	16A/LL	.	.	.
.	.	8qA/	.	.	.
8BB\J	.	16G/	.	.	.
.	.	16F#/JJ	.	.	.
=20	=20	=20	=20	=20	=20
4E 4EE\	.	16r	4G/	.	.
.	.	(16eeLL 16g/	.	.	.
.	.	16ff# 16b/	.	.	.
.	.	16ggJJ 16ee/	.	.	.
8r	.	16ff#LL 16b/	4ryy	.	.
.	.	16eeJJ 16g/)	.	.	.
16gLL 16e\	.	8.r	.	.	.
16f#JJ 16B\	.	.	.	.	.
16e 16G\	.	.	4ryy	.	.
8ryy	.	(16B/LL	.	.	.
.	.	16G/	.	.	.
48AA\L	.	16A/JJ)	.	.	.
48GG\	.	.	.	.	.
48FF#\J	.	.	.	.	.
!!LO:LB:g=original
=21	=21	=21	=21	=21	=21
4E 4EE/	.	16r	4B 4G/	.	.
.	.	(16eeLL 16g/	.	.	.
.	.	16ff# 16b/	.	.	.
.	.	16ggJJ 16ee/	.	.	.
8rBB	.	16ff#LL 16b/	4ryy	.	.
.	.	16eeJJ 16g/)	.	.	.
16gLL 16e\	.	8.r	.	.	.
16f#JJ 16B\	.	.	.	.	.
16e 16G\	.	.	4ryy	.	.
!	!	!LO:TX:a:t=P:problem:mixed beam	!	!	!
16ryy	.	16e\LL	.	.	.
16ryy	.	16G/	.	.	.
48BB\L	.	16A/JJ	.	.	.
48AA#X\	.	.	.	.	.
48BB\	.	.	.	.	.
=22	=22	=22	=22	=22	=22
8E 8EE\J	.	16r	4B 4G/	.	.
.	.	(16eeLL 16g/	.	.	.
8r	.	16ff# 16b/	.	.	.
.	.	16ggJJ 16ee/	.	.	.
8r	.	16ff#LL 16b/	4ryy	.	.
.	.	16eeJJ 16g/)	.	.	.
16gLL 16e\	.	8.r	.	.	.
16f#JJ 16B\	.	.	.	.	.
16e 16G\	.	.	4ryy	.	.
16r	.	16B/LL	.	.	<
16r	.	16e/	.	.	.
48EE\LLL	.	16d/JJ	.	.	.
48FF#X\	.	.	.	.	.
48GG#X\JJJ	.	.	.	.	.
*	*	*v	*v	*	*
=23	=23	=23	=23	=23
4AA\	.	(16cLL 16E/	.	.
.	.	16aa 16cc/	.	.
.	.	16bb 16ee/	.	.
.	.	16cccJJ 16aa/	.	.
8r	.	16bbLL 16ee/	.	.
.	.	16aaJJ 16cc/)	.	.
16bLL 16d#X\	.	8.r	.	.
16f#\JJ	.	.	.	.
8.B\L	.	.	.	.
.	.	16A/LL	.	.
.	.	8qA/	.	p
.	.	16G/	.	.
48BBB\LL	.	16F#/JJ	.	.
48CC#X\	.	.	.	.
48DD#X\JJJ	.	.	.	.
=24	=24	=24	=24	=24
8GG 8EE\	.	(16E/LL	.	.
.	.	16ee 16g/	.	.
8r	.	16ff# 16b/	.	.
.	.	16ggJJ 16ee/	.	.
8r	.	16ff#LL 16b/	.	.
.	.	16eeJJ 16g/)	.	.
(16gLL 16e\	.	8.r	.	.
16f#JJ 16B\	.	.	.	.
16e 16G\)	.	.	.	.
8.r	.	(16G/LL	.	.
.	.	16F#/	.	.
.	.	16E/JJ)	.	.
!!LO:PB:g=original
=25	=25	=25	=25	=25
*	*	*ped	*	*
4C: 4CC:\	.	(16e:LL 16c: 16G:/	.	f
.	.	16ccc 16ee/	.	.
.	.	16ddd 16gg/	.	.
.	.	16dddJJ 16bb/	.	.
8r	.	16dddLL 16gg/	.	.
.	.	16cccJJ 16ee/)	.	.
(16ccLL 16e\	.	8.r	.	.
16g\JJ	.	.	.	.
16c\)	.	.	.	.
16r	.	16c^/LL	.	.
8E: 8GG: 8CC:\	.	16G^/	.	.
.	.	16A^/JJ	.	.
*	*	*Xped	*	*
=26	=26	=26	=26	=26
4GG 4GGG\	.	(16B/LL	.	.
.	.	16bb 16ee/	.	.
.	.	16ccc 16gg/	.	.
.	.	16dddJJ 16bb/	.	.
8r	.	16cccLL 16gg/	.	.
.	.	16bbJJ 16ee/)	.	.
16bLL 16d\	.	8.r	.	.
16g\JJ	.	.	.	.
16B\	.	.	.	.
16r	.	16G/LL	.	.
.	.	8qB/	.	.
8GG 8GGG\L	.	16A/	.	.
.	.	16G/JJ	.	.
=27	=27	=27	=27	=27
*	*	*^	*	*
*	*	*	*ped	*	*
8FF# 8FFF#\J	.	16r	4d 4A 4D/	.	.
.	.	16aaLL 16dd/	.	.	.
8r	.	16ccc 16ff#/	.	.	.
.	.	16dddJJ 16aa/	.	.	.
8r	.	16cccLL 16ff#\	8ryy	.	.
.	.	16aaJJ 16dd\	.	.	.
16ccLL 16a\	.	8.ryy	8ryy	.	.
16aJJ 16f#\	.	.	.	.	.
16f# 16d\	.	.	4ryy	.	.
16r	.	16c^/LL	.	.	.
8F#: 8C: 8DD:\	.	16B^/	.	.	.
.	.	16A^/JJ	.	.	.
*	*	*Xped	*	*	*
=28	=28	=28	=28	=28	=28
4BB: 4BBB:\	.	16r	4G\	.	.
.	.	(16bbLL 16dd/	.	.	p
.	.	16ccc 16gg/	.	.	.
.	.	16dddJJ 16bb/	.	.	.
16bLL 16d\	.	16cccLL 16gg\	4ryy	.	.
16g\JJ	.	16bbJJ 16dd\)	.	.	.
16B\	.	8.ryy	.	.	.
16ryy	.	.	.	.	.
4ryy	.	.	4ryy	.	.
.	.	16G^/LL	.	.	.
.	.	16A^/	.	.	.
.	.	16B^/JJ	.	.	.
!!LO:LB:g=original
=29	=29	=29	=29	=29	=29
*	*	*ped	*	*	*
4C 4CC\	.	16r	4c 4G 4E/	.	f
.	.	(16cccLL 16ee/	.	.	.
.	.	16ddd 16gg/	.	.	.
.	.	16eeeJJ 16ccc/	.	.	.
8r	.	16dddLL 16gg\	8ryy	.	.
.	.	16cccJJ 16ee\)	.	.	.
(16ccLL 16e\	.	8.r	8.ryy	.	.
16g\JJ	.	.	.	.	.
16c\)	.	.	.	.	.
16ryy	.	16c^/LL	8.r	.	.
8C 8CC\	.	16G^/	.	.	.
.	.	16A^/JJ	.	.	.
*	*	*Xped	*	*	*
=30	=30	=30	=30	=30	=30
4GG 4GGG\	.	16r	4B/	.	.
.	.	(16bbLL 16dd/	.	.	.
.	.	16ccc 16gg/	.	.	.
.	.	16dddJJ 16bb/	.	.	.
8r	.	16cccLL 16gg/	4ryy	.	.
.	.	16bbJJ 16dd/)	.	.	.
16bLL 16d\	.	8.r	.	.	.
16g\JJ	.	.	.	.	.
16B\	.	.	4ryy	.	.
16ryy	.	16B/LL	.	.	.
8GG 8GGG\	.	16A#X/	.	.	.
.	.	16B/JJ	.	.	.
=31	=31	=31	=31	=31	=31
*^	*	*	*	*	*
*	*	*	*	*ped	*	*
4FF# 4FFF#/	4ryy	.	16r	4A#X\	.	sf
.	.	.	16aa#XLL 16ff#\	.	.	.
.	.	.	16ccc#X 16aan\	.	.	.
.	.	.	16eeeJJ 16aa#X\	.	.	.
8r	8ryy	.	16ccc#LL 16aa#/	4ryy	.	.
.	.	.	16aa#JJ 16ff#/	.	.	.
16eeLL 16cc#X\	16ryy	.	8.r	.	.	.
16a#X\JJ	16ryy	.	.	.	.	.
!LO:TX:a:t=P:problem:mixed beam	!	!	!	!	!	!
8f#\L	8ryy	5	.	4ryy	.	sf
.	.	.	16e/LL	.	.	.
8F#/J	16ryy	4	16d#X/	.	.	.
.	48FF#\LLL	.	16c#X/JJ	.	.	.
.	48GG#X\	.	.	.	.	.
.	48AA#X\JJJ	.	.	.	.	.
*v	*v	*	*	*	*	*
*	*	*v	*v	*	*
*	*	*Xped	*	*
=32	=32	=32	=32	=32
4BB\	.	(16B/LL	.	.
.	.	16ff# 16b/	.	.
.	.	16gg#X 16dd#X/	.	.
.	.	16bbJJ 16ff#/	.	.
8r	.	16gg#LL 16dd#/	.	.
.	.	16ff#JJ 16b/)	.	.
16bLL 16d\	.	8.r	.	.
16f#JJ 16d\	.	.	.	.
16d 16B\	.	.	.	.
16r	.	16B/LL	.	p
8BB 8BBB\	.	16B/	.	.
.	.	16B/JJ	.	.
!!LO:LB:g=original
=33	=33	=33	=33	=33
*^	*	*^	*	*
*	*	*	*	*ped	*	*
4ryy	4GG#X 4GGG#X/	.	16r	4B/	.	f
*	*	*	*8va	*	*	*
.	.	.	16ggg#XLL 16bb/	.	.	.
.	.	.	16aaa#X 16ddd#X/	.	.	.
.	.	.	16bbbJJ 16ggg#/	.	.	.
8ryy	8r	.	16aaa#LL 16ddd#/	4ryy	.	.
.	.	.	16ggg#JJ 16bb/	.	.	.
*v	*v	*	*	*	*	*
*	*	*X8va	*	*	*
*^	*	*	*	*	*
16ryy	16ggLL 16b\	.	8.r	.	.	.
16ryy	16dd\JJ	.	.	.	.	.
16ryy	16g\	.	.	4ryy	.	.
16ryy	16r	.	16d#X^/LL	.	.	.
16BB/LL	8DD#X\L	.	16G#X^/	.	.	.
16C#X/JJ	.	.	16A#X^/JJ	.	.	.
*	*	*	*Xped	*	*	*
=34	=34	=34	=34	=34	=34	=34
*	*	*	*ped	*	*	*
*	*	*	*	*	*	*
2ryy	8GG#X\J	.	16r	4B 4D/	.	f
*	*	*	*8va	*	*	*
.	.	.	16ggg#XLL 16bb/	.	.	.
.	8r	.	16aaa#X 16ddd#X/	.	.	.
.	.	.	16bbbJJ 16ggg#/	.	.	.
.	8r	.	16aaa#LL 16ddd#/	4ryy	.	.
.	.	.	16ggg#JJ 16bb/	.	.	.
*	*	*	*X8va	*	*	*
.	16ggLL 16b\	.	8.r	.	.	.
.	16dd\JJ	.	.	.	.	.
16ryy	16g\	.	.	4ryy	.	.
16ryy	16r	.	16D#X^/LL	.	.	.
*	*	*	*Xped	*	*	*
8ryy	8E 8GG#\	.	16G#X^/	.	.	.
.	.	.	16A#X^/JJ	.	.	.
*v	*v	*	*	*	*	*
=35	=35	=35	=35	=35	=35
!LO:N:vis=4	!	!	!	!	!
*	*	*	*ped	*	*
8D#X 8FF##X\	.	16r	4A#X\	.	.
*	*	*8va	*	*	*
.	.	16ccc#XLL 16ff##X/	.	1 3	.
8r	.	16ddd#X 16aa#X/	.	2 4	.
.	.	16fff##XJJ 16ccc#/	.	3 5	.
8r	.	16ddd#LL 16aa#/	16ryy	.	.
.	.	16ccc#JJ 16ff##/	16ryy	.	.
*	*	*v	*v	*	*
*	*	*X8va	*	*
*	*	*^	*	*
16ddLL 16a#X\	.	8.r	8ryy	.	.
16cc#X\JJ	.	.	.	.	.
8d\L	1	.	4ryy	.	sf
.	.	16c#X/LL	.	.	.
.	.	8qc#/	.	.	.
8D#\J	5	16B/	.	.	.
.	.	16A#/JJ	.	.	.
*	*	*v	*v	*	*
*	*	*Xped	*	*
=36	=36	=36	=36	=36
*	*	*ped	*	*
4GG#X\	.	16B 16G/	.	.
*	*	*8va	*	*
.	.	16ggg#XLL 16bb/	.	.
.	.	16aaa#X 16ddd#X/	.	.
.	.	16bbbJJ 16ggg#/	.	.
8r	.	16aaa#LL 16ddd#/	.	.
.	.	16ggg#JJ 16bb/	.	.
*	*	*X8va	*	*
16ggLL 16b\	.	8.r	.	.
16dd\JJ	.	.	.	.
16g\	.	.	.	.
16r	.	16d#X^/LL	.	.
16r	.	16G#X^/	.	.
48DD#X\LLL	.	16A#X^/JJ	.	.
48CC##X\	.	.	.	.
*	*	*Xped	*	*
48DD#\JJJ	.	.	.	.
!!LO:LB:g=original
=37	=37	=37	=37	=37
*	*	*^	*	*
4GG#X 4GGG#X\	.	16r	4B/	.	.
*	*	*8va	*	*	*
*	*	*ped	*	*	*
.	.	16ggg#XLL 16bb/	.	.	.
.	.	16aaa#X 16ddd#X/	.	.	.
.	.	16bbbJJ 16ggg#/	.	.	.
8r	.	16aaa#LL 16ddd#/	8ryy	.	.
.	.	16ggg#JJ 16bb/	.	.	.
*	*	*v	*v	*	*
*	*	*X8va	*	*
*	*	*^	*	*
16ggLL 16b\	.	8.r	8ryy	.	.
16dd\JJ	.	.	.	.	.
16g\	.	.	4r	.	.
!	!	!LO:TX:a:t=P:problem:mixed beam	!	!	!
16r	.	16g\LL	.	.	.
16r	.	16G/	.	.	.
48D#X\LLL	.	16A#X/JJ	.	.	.
48C##X\	.	.	.	.	.
48D#\JJJ	.	.	.	.	.
*	*	*v	*v	*	*
=38	=38	=38	=38	=38
4GG#X/	.	16r	.	.
*	*	*8va	*	*
.	.	(16ggg#XLL 16bb/	.	.
.	.	16aaa#X 16ddd#X/	.	.
.	.	16bbbJJ 16ggg#/	.	.
8r	.	16aaa#LL 16ddd#/	.	.
.	.	16ggg#JJ 16bb/)	.	.
*	*	*X8va	*	*
(16ggLL 16b\	.	8.ryy	.	.
16dd\JJ	.	.	.	.
16g\)	.	.	.	.
16r	.	(16G#X/LL	.	.
8C##X 8GG# 8EE#X\L	.	16A#X/	.	.
.	.	16B/JJ	.	.
=39	=39	=39	=39	=39
*	*	*^	*	*
*	*	*ped	*	*	*
8AA#X 8AAA#X\J	.	16r	4c##X 4A#X 4E#X/)	.	f
*	*	*8va	*	*	*
.	.	16ggg#XLL 16ddd/	.	.	.
8ryy	.	16aaa#X 16eee#X/	.	.	.
.	.	16cccc##XJJ 16ggg#/	.	.	.
8ryy	.	16aaa#LL 16eee#\	8ryy	.	.
!	!	!LO:TX:t=m.g.	!	!	!
.	.	16ggg#JJ 16ddd\	.	.	.
*	*	*v	*v	*	*
*	*	*X8va	*	*
*	*	*^	*	*
8ryy	.	8r	8ryy	.	.
!	!	!LO:TX:a:t=P:problem:mixed beam	!	!	!
8a\L	.	16A#/LL	4ryy	.	.
.	.	16g#X\	.	.	.
.	.	8qg#\	.	.	.
!LO:TX:t=m.d.	!	!	!	!	!
8AA#X\J	.	16f#\	.	.	.
.	.	16e#X\JJ	.	.	.
=40	=40	=40	=40	=40	=40
*	*	*	*ped	*	*
4D#X 4DD#X/	.	16r	4d#X\	.	.
.	.	16ddd#XLL 16ff#/	.	.	.
.	.	16eee#X 16aa#X/	.	.	.
.	.	16fff#JJ 16ddd#/	.	.	.
8r	.	16eee#LL 16aa#/	4r	.	.
.	.	16ddd#JJ 16ff#/	.	.	.
16dd#XLL 16f#\	.	8.r	.	.	.
16a#X\JJ	.	.	.	.	.
16d\	.	.	4r	.	.
16r	.	16d#/LL	.	.	p
8D# 8DD#/	.	16d#/	.	.	.
*	*	*Xped	*	*	*
.	.	16d#/JJ	.	.	.
!!LO:LB:g=original
=41	=41	=41	=41	=41	=41
4BB 4BBB/	.	16r	4d#X\	.	.
.	.	16bbLL 16dd#X/	.	.	.
.	.	16ccc#X 16ff#X/	.	.	.
.	.	16dddJJ 16bb/	.	.	.
8r	.	16ccc#LL 16ff#/	4ryy	.	.
.	.	16bbJJ 16dd#/	.	.	.
!LO:TX:t=les 2 Péd	!	!	!	!	!
16bLL 16d#X\	.	8.r	.	.	.
16f#\JJ	.	.	.	.	.
16B\	.	.	4ryy	.	.
16r	.	16B^/LL	.	.	.
16r	.	16A#X^/	.	.	.
48FF#\LLL	.	16G#X^/JJ	.	.	.
48GG#X\	.	.	.	.	.
48AA#X\JJJ	.	.	.	.	.
=42	=42	=42	=42	=42	=42
4BB 4BBB\	.	16r	4F# 4D#X/	.	p
.	.	(16bbLL 16dd#X/	.	.	.
.	.	16ccc#X 16ff#/	.	.	.
.	.	16ddd#XJJ 16bb/	.	.	.
8r	.	16ccc#LL 16ff#/	4r	.	.
.	.	16bbJJ 16dd#/)	.	.	.
(16bLL 16d#X\	.	8.r	.	.	.
16f#\JJ	.	.	.	.	.
16B\)	.	.	4r	.	.
16r	.	16B/LL	.	.	.
8BB 8BBB\L	.	16A#X/	.	.	.
.	.	16B/JJ	.	.	.
=43	=43	=43	=43	=43	=43
8AA#X 8AAA#X\J	.	16r	4c#X 4F#/	.	.
.	.	(16aa#XLL 16ee/	.	.	.
8r	.	16ccc#X 16ff#/	.	.	.
.	.	16eeeJJ 16ccc#/	.	.	.
8r	.	16ccc#LL 16ff#\	4ryy	.	.
.	.	16aa#JJ 16ee\)	.	.	.
(16cc#XLL 16f#\	.	8.r	.	.	.
16a#X\JJ	.	.	.	.	.
16e\)	.	.	4r	.	.
16r	.	16c#^/LL	.	.	.
8AA# 8AAA#\L	.	16B#X^/	.	.	.
.	.	16c#^/JJ	.	.	.
=44	=44	=44	=44	=44	=44
*	*	*	*ped	*	*
8AAn 8AAAn\J	.	16r	4d#X 4F#/	.	.
.	.	16dd#XLL 16a/	.	.	.
8r	.	16ff# 16cc/	.	.	.
.	.	16aaJJ 16dd#/	.	.	.
8r	.	16ff#LL 16cc\	8ryy	.	.
.	.	16dd#JJ 16a\	.	.	.
!	!	!	!	!	!LO:DY:a
16ff#LL 16ccn\	.	8r	8ryy	.	sf
*	*	*Xped	*	*	*
16dd#X\JJ	.	.	.	.	.
8g#X\L	5	16G#X/LL	4G#\	.	.
.	.	16f#/	.	.	.
.	.	8qf#/	.	.	.
8GG\J	1	16e/	.	.	.
.	.	16d#/JJ	.	.	.
!!LO:LB:g=original
=45	=45	=45	=45	=45	=45
*^	*	*	*	*	*
*	*	*	*ped	*	*	*
4c#X 4C#X/	4ryy	.	16r	4e 4c#X\	.	.
.	.	.	(16ccc#XLL 16ee/	.	.	.
.	.	.	16ddd#X 16gg#X/	.	.	.
.	.	.	16eeeJJ 16ccc#/	.	.	.
8ryy	8ryy	.	16ddd#LL 16gg#/	4ryy	.	.
.	.	.	16ccc#JJ 16ee/)	.	.	.
16ccLL 16e\	4ryy	.	8.r	.	.	.
16g#X\JJ	.	.	.	.	.	.
16c#\	.	.	.	4ryy	.	.
16ryy	.	.	16gX^/LL	.	.	.
8GG#X\L	16G#X\LL	.	16c#X^/	.	.	.
.	16F#\JJ	.	16d#X^/JJ	.	.	.
*	*	*	*Xped	*	*	*
*v	*v	*	*	*	*	*
=46	=46	=46	=46	=46	=46
*	*	*	*ped	*	*
8C#X\J	.	16r	4e/	.	.
.	.	(16ccc#XLL 16ee/	.	.	.
8r	.	16ddd#X 16gg#X/	.	.	.
.	.	16eeeJJ 16ccc#/	.	.	.
8r	.	16ddd#LL 16gg#/	4ryy	.	.
.	.	16ccc#JJ 16ee/)	.	.	.
16cc#XLL 16e\	.	8.r	.	.	.
16g#X\JJ	.	.	.	.	.
16c\	.	.	4ryy	.	.
16r	.	16g/LL	.	.	p
8G#X 8C#\	.	16f#/	.	.	.
.	.	16e/JJ	.	.	.
*	*	*Xped	*	*	*
=47	=47	=47	=47	=47	=47
*	*	*	*ped	*	*
8C#X: 8CC#X:\	.	16ryy	4d 4F##X/	.	.
.	.	(16ccc#XLL 16ff##X/	.	.	.
8r	.	16ddd#X 16aa/	.	.	.
.	.	16gggJJ 16ccc#/	.	.	.
8r	.	16ddd#LL 16aa\	4ryy	.	.
.	.	16ccc#JJ 16gg\)	.	.	.
(16dd#XLL 16a#X\	.	8ryy	.	.	.
16cc#X\JJ)	.	.	.	.	.
!	!	!LO:TX:t=P:problem:mixed beam	!	!	!
8d#X\L	.	16D#X/LL	4D#/	.	.
.	.	16c#X\	.	.	.
.	.	8qc#\	.	.	.
8DD#X\J	.	16B\	.	.	.
.	.	16A#X\JJ	.	.	.
=48	=48	=48	=48	=48	=48
*	*	*	*ped	*	*
4GG#X 4GGG#X/	.	16ryy	4B#X 4G#X\	.	.
.	.	(16gg#XLL 16b#X/	.	.	p
.	.	16aa#X 16dd#X/	.	.	.
.	.	16bb#XJJ 16gg#/	.	.	.
8ryy	.	16aa#LL 16dd#/	4ryy	.	.
.	.	16gg#JJ 16cc/)	.	.	.
!LO:TX:t=smorz	!	!	!	!	!
16bLL 16d#X\	.	8.r	.	.	.
16g#X\JJ	.	.	.	.	.
16G#X\	.	.	4r	.	.
8.r	.	16d/LL	.	.	p
.	.	16d/	.	.	.
.	.	16d/JJ	.	.	.
*	*	*v	*v	*	*
!!LO:PB:g=original	!	!	!	!
=49	=49	=49	=49	=49
*k[b-e-a-d-]	*	*k[b-e-a-d-]	*	*
*^	*	*	*	*
8r	2AA-\	.	16r	.	.
*	*	*	*ped	*	*
!	!	!	!LO:TX:b:t=dolce	!	!
.	.	.	(16a-LL 16c/	3	.
8ryy	.	.	16b- 16e-/	.	4
.	.	.	16cc 16a-/	.	5
!LO:TX:b:t=il basso marcato	!	!	!	!	!
8r	.	.	16b- 16e-/	.	.
.	.	.	16a-JJ 16c/)	.	.
(16B-/LL	.	1	16e-/LL	1	<
16A-/JJ	.	2	16ee-/JJ	5	.
16G/LL	4ryy	1	16ee-\LL	1	.
16A-/	.	2	16eee-\JJ	1	.
*	*	*	*8va	*	*
16G/	.	1	16eee-\LL	1	.
16F/JJ)	.	2	16eeee-\JJ	5	[[
*v	*v	*	*	*	*
*	*	*X8va	*	*
=50	=50	=50	=50	=50
*^	*	*	*	*
4.E-/	2.AA-\	.	16r	.	.
.	.	.	(16a-LL 16c/	.	.
.	.	.	16b- 16e-/	.	.
.	.	.	16cc 16a-/	.	.
.	.	.	16b- 16e-/	.	.
.	.	.	16a-JJ 16c/)	.	.
16G/LL	.	1	16e-/LL	.	.
16A-/JJ	.	2	16ee-/JJ	.	.
16B-/LL	.	1	16ee-\LL	.	.
16A-/	.	2	16eee-\JJ	.	.
*	*	*	*8va	*	*
16G/	.	1	16eee-\LL	.	.
16F/JJ	.	.	16eeee-\JJ	.	.
*v	*v	*	*	*	*
*	*	*X8va	*	*
*	*	*Xped	*	*
=51	=51	=51	=51	=51
*^	*	*	*	*
*	*	*	*ped	*	*
4.E-/	2.AA-\	.	16r	.	.
.	.	.	(16b-LL 16e-/	.	.
.	.	.	16dd- 16g/	.	.
.	.	.	16ee- 16b-/	.	.
.	.	.	16dd- 16g/	.	.
.	.	.	16b-JJ 16e-/)	.	.
16B-/LL	.	1	16e-/LL	.	<
16A-/JJ	.	2	16ee-/JJ	.	.
16G/LL	.	1	16ee-\LL	.	.
16F/	.	.	16eee-\JJ	.	.
*	*	*	*8va	*	*
16E-/	.	.	16eee-\LL	.	.
16D-/JJ	.	.	16eeee-\JJ	.	[[
*v	*v	*	*	*	*
*	*	*X8va	*	*
*	*	*	*Xped	*
=52	=52	=52	=52	=52
*^	*	*	*	*
4.C/	2.AA-\	.	16r	.	.
.	.	.	(16ccLL 16e-/	.	.
.	.	.	16dd- 16a-/	.	.
.	.	.	16ee- 16cc/	.	.
.	.	.	16dd- 16a-/	.	.
.	.	.	16ccJJ 16e-/)	.	.
16c/LL	.	.	16e-/LL	.	<
16B-/JJ	.	.	16ee-/JJ	.	.
16A-/LL	.	.	16ee-\LL	.	.
16G/	.	.	16eee-\JJ	.	.
*	*	*	*8va	*	*
16F/	.	.	16eee-\LL	.	.
16E-/JJ	.	.	16eeee-\JJ	.	[[
*v	*v	*	*	*	*
*	*	*X8va	*	*
!!LO:LB:g=original
=53	=53	=53	=53	=53
*^	*	*	*	*
4.E-/	2.AA-\	.	16r	.	.
.	.	.	(16a-LL 16c/	.	.
.	.	.	16b- 16e-/	.	.
.	.	.	16cc 16a-/	.	.
.	.	.	16b- 16e-/	.	.
.	.	.	16a-JJ 16c/)	.	.
(16B-/LL	.	.	16e-/LL	.	.
16A-/JJ	.	.	16ee-/JJ	.	.
16G/LL	.	.	16ee-\LL	.	.
16A-/	.	.	16eee-\JJ	.	.
*	*	*	*8va	*	*
16G/	.	.	16eee-\LL	.	.
16F/JJ)	.	.	16eeee-\JJ	.	.
*v	*v	*	*	*	*
*	*	*X8va	*	*
=54	=54	=54	=54	=54
*^	*	*	*	*
4.E-/	2.AA-\	.	16r	.	.
.	.	.	(16a-LL 16c/	.	.
.	.	.	16b- 16e-/	.	.
.	.	.	16cc 16a-/	.	.
.	.	.	16b- 16e-/	.	.
.	.	.	16a-JJ 16c/)	.	.
16G/LL	.	.	16e-/LL	.	.
16A-/JJ	.	.	16ee-/JJ	.	.
16B-/LL	.	.	16ee-\LL	.	.
16A-/	.	.	16eee-\JJ	.	.
*	*	*	*8va	*	*
16G/	.	.	16eee-\LL	.	.
16F/JJ	.	.	16eeee-\JJ	.	.
*v	*v	*	*	*	*
*	*	*X8va	*	*
=55	=55	=55	=55	=55
*^	*	*	*	*
4.E-/	2.E-\	35	16r	.	.
.	.	.	(16b-LL 16e-/	.	.
.	.	.	16dd- 16g/	.	.
.	.	.	16ee- 16b-/	.	.
.	.	.	16dd- 16g/	.	.
.	.	.	16b-JJ 16e-/)	.	.
16e-^/LL	.	.	16e-/LL	.	f
16d-^/JJ	.	.	16ee-/JJ	.	.
16c^/LL	.	.	16ee-\LL	.	.
16B-^/	.	.	16eee-\JJ	.	.
*	*	*	*8va	*	*
16A-^/	.	.	16eee-\LL	.	.
16G^/JJ	.	.	16eeee-\JJ	.	.
*v	*v	*	*	*	*
*	*	*X8va	*	*
=56	=56	=56	=56	=56
*^	*	*	*	*
4.A-/	4.AA-\	.	16r	.	p
.	.	.	(16a-LL 16c/	.	.
.	.	.	16b- 16e-/	.	.
.	.	.	16cc 16a-/	.	.
.	.	.	16b- 16e-/	.	.
.	.	.	16a-JJ 16c/)	.	.
16c/LL	8ryy	.	16e-/LL	.	.
16A-/JJ	.	.	16ee-/JJ	.	.
16E-/LL	4ryy	.	16ee-\LL	.	.
16A-/	.	.	16eee-\JJ	.	.
*	*	*	*8va	*	*
16E-/	.	.	16eee-\LL	.	.
16C/JJ	.	.	16eeee-\JJ	.	.
*v	*v	*	*	*	*
*	*	*X8va	*	*
!!LO:LB:g=original
=57	=57	=57	=57	=57
*^	*	*	*	*
4.Dn/	2.AA-\	.	16r	.	sf
.	.	.	(16bnLL 16f\	.	.
.	.	.	16dd- 16a-\	.	.
.	.	.	16ff 16b\	.	.
.	.	.	16dd- 16a-\	.	.
.	.	.	16bJJ 16f\)	.	.
16c-X/LL	.	.	16f\LL	.	.
16A-/JJ	.	.	16ff\JJ	.	.
16F/LL	.	.	16ff\LL	.	.
16A-/	.	.	16fff\JJ	.	.
*	*	*	*8va	*	*
16F/	.	.	16fff\LL	.	.
16D/JJ	.	.	16ffff\JJ	.	.
*v	*v	*	*	*	*
*	*	*X8va	*	*
=58	=58	=58	=58	=58
*^	*	*	*	*
4.E-/	2.AA-\	.	16r	.	p
.	.	.	(16a-LL 16c/	.	.
.	.	.	16b- 16f/	.	.
.	.	.	16cc 16a-/	.	.
.	.	.	16b- 16f/	.	.
.	.	.	16a-JJ 16c/)	.	.
16cn/LL	.	.	16e-/LL	.	.
16A-/JJ	.	.	16ee-/JJ	.	.
16E-/LL	.	.	16ee-\LL	.	.
16A-/	.	.	16eee-\JJ	.	.
*	*	*	*8va	*	*
16E-/	.	.	16eee-\LL	.	.
16C/JJ	.	.	16eeee-\JJ	.	.
*v	*v	*	*	*	*
*	*	*X8va	*	*
=59	=59	=59	=59	=59
*^	*	*	*	*
4.EE-\	2.E-/	.	16r	.	f
.	.	.	(16ccLL 16e-/	.	.
.	.	.	16dd- 16a-/	.	.
.	.	.	16ee- 16cc/	.	.
.	.	.	16dd- 16a-/	.	.
.	.	.	16ccJJ 16e-/)	.	.
16e-/LL	.	.	16e-/LL	.	.
16d-/JJ	.	.	16ee-/JJ	.	.
16c/LL	.	.	16ee-\LL	.	.
16B-/	.	.	16eee-\JJ	.	.
*	*	*	*8va	*	*
16A-/	.	.	16eee-\LL	.	.
16G/JJ	.	.	16eeee-\JJ	.	.
*v	*v	*	*	*	*
*	*	*X8va	*	*
=60	=60	=60	=60	=60
*^	*	*	*	*
4.A-/	2AA-\	.	16r	.	.
.	.	.	(16a-LL 16c/	.	.
.	.	.	16b- 16f/	.	.
.	.	.	16cc 16a-/	.	.
.	.	.	16b- 16f/	.	.
.	.	.	16a-JJ 16c/)	.	.
16c/LL	.	.	16e-/LL	.	.
16B-/JJ	.	.	16ee-/JJ	.	.
16A-/LL	4ryy	.	16ee-\LL	.	.
16G/	.	.	16eee-\JJ	.	.
*	*	*	*8va	*	*
16F/	.	.	16eee-\LL	.	.
16E-/JJ	.	.	16eeee-\JJ	.	.
*v	*v	*	*	*	*
*	*	*X8va	*	*
!!LO:LB:g=original
=61	=61	=61	=61	=61
*^	*	*	*	*
4.Dn/	2.AA-\	.	16r	.	f
.	.	.	(16bnLL 16f\	.	.
.	.	.	16dd- 16a-\	.	.
.	.	.	16ff 16b\	.	.
.	.	.	16dd- 16a-\	.	.
.	.	.	16bJJ 16f\)	.	.
16c-X/LL	.	.	24f\LL	2	.
.	.	.	24f\	4	.
16A-/JJ	.	.	.	.	.
.	.	.	24ff\JJ	5	.
16F/LL	.	.	24ff\LL	2	.
.	.	.	24ff\	1	.
16A-/	.	.	.	.	.
.	.	.	24fff\	1	.
16F/	.	.	24ff\	2	.
.	.	.	24ff\	1	.
16D/JJ	.	.	.	.	.
.	.	.	24fff\JJ	5	.
=62	=62	=62	=62	=62	=62
4.A- 4.E- 4.C\	4.AA-\	.	16r	.	ff
.	.	.	(16ccLL 16e-/	.	.
.	.	.	16dd- 16a-/	.	.
.	.	.	16ee- 16cc/	.	.
.	.	.	16dd- 16a-/	.	.
.	.	.	16ccJJ 16e-/)	.	.
16G/LL	4AA-\	.	112%3r	.	sf
.	.	.	(112%3en\LLL	.	.
.	.	.	112%3g\	.	.
16En/JJ	.	.	.	.	.
.	.	.	112%3b-\	.	.
.	.	.	112%3dd-\	.	.
16D-/LL	.	.	.	.	.
.	.	.	112%3een\	.	[
.	.	.	112%3gg\	.	.
16E/	.	.	112%3bb-\	.	.
.	.	.	112%3ddd-\	.	.
.	.	.	112%3eee-\	.	.
16D-/	8ryy	.	.	.	.
*	*	*	*X8va	*	*
.	.	.	112%3ggg\	.	.
.	.	.	112%3bbb-\	.	.
16BB-/JJ	.	.	.	.	.
.	.	.	112%3dddd-\	.	.
.	.	.	112%3eeee-\JJJ)	.	[[
*v	*v	*	*	*	*
*	*	*X8va	*	*
=63	=63	=63	=63	=63
*^	*	*	*	*
4.A- 4.E-X 4.C\	4.AA-\	.	16r	.	.
.	.	.	(16ccLL 16e-/	.	.
.	.	.	16dd- 16a-/	.	.
.	.	.	16ee- 16cc/	.	.
.	.	.	16dd- 16a-/	.	.
.	.	.	16ccJJ 16e-/)	.	.
16G/LL	4AA-\	.	112%3r	.	sf
.	.	.	(112%3en\LLL	.	.
.	.	.	112%3g\	.	.
16En/JJ	.	.	.	.	.
.	.	.	112%3b-\	.	.
.	.	.	112%3dd-\	.	.
16D-/LL	.	.	.	.	.
.	.	.	112%3een\	.	[
.	.	.	112%3gg\	.	.
16E/	.	.	112%3bb-\	.	.
.	.	.	112%3ddd-\	.	.
.	.	.	112%3eee-\	.	.
16D-/	8ryy	.	.	.	.
*	*	*	*X8va	*	*
.	.	.	112%3ggg\	.	.
.	.	.	112%3bbb-\	.	.
16BB-/JJ	.	.	.	.	.
.	.	.	112%3dddd-\	.	.
.	.	.	112%3eeee-\JJJ)	.	[[
*v	*v	*	*	*	*
*	*	*X8va	*	*
=64	=64	=64	=64	=64
4.A- 4.E-X 4.C 4.AA-\	.	16r	.	.
.	.	(16ccLL 16e-/	.	.
.	.	16dd- 16g/	.	.
.	.	16ee-X 16cc/	.	.
.	.	16dd- 16g/	.	.
.	.	16ccJJ 16e-/)	.	.
4.F#X 4.D- 4.BBn 4.AAn\	.	16r	.	sf
.	.	(16anLL 16d#X/	.	.
.	.	16bn 16f#X/	.	.
.	.	16ddn 16a/	.	.
.	.	16b 16f#/	.	.
.	.	16aJJ 16e-/)	.	.
!!LO:LB:g=original
=65	=65	=65	=65	=65
4.G#X 4.En 4.BBn 4.GG#X\	.	16r	.	sf
.	.	(16bnLL 16en\	.	.
.	.	16cc#X 16g#X\	.	.
.	.	16een 16b\	.	.
.	.	16cc# 16g#\	.	.
.	.	16bJJ 16e\)	.	.
4.An 4.F#X 4.C#X 4.AAn\	.	16r	.	sf
.	.	(16cc#LL 16f#X\	.	.
.	.	16dd#X 16an\	.	.
.	.	16ff#X 16ccn\	.	.
.	.	16dd# 16a\	.	.
.	.	16ccJJ 16f#\)	.	.
=66	=66	=66	=66	=66
4.Bn 4.G#X 4.En 4.BBn\	.	16r	.	sf
.	.	16gg#XLL 16bn\	.	.
.	.	16aan 16een\	.	.
.	.	16bbn 16gg#\	.	.
.	.	16aa-X 16ee\	.	.
.	.	16gg#JJ 16b\	.	.
4.B: 4.F#X: 4.D#X: 4.BB:\	.	16r	.	sf
.	.	16ff#XLL 16a-\	.	.
.	.	16gg# 16dd#X\	.	.
.	.	16aa- 16ff#\	.	.
.	.	16gg-X 16dd#\	.	.
.	.	16ff#JJ 16a-\	.	.
=67||	=67||	=67||	=67||	=67||
*k[]	*	*k[]	*	*
*^	*	*	*	*
4.B#X: 4.F#X: 4.D#X: 4.GG#X:\	4.ryy	.	16r	.	ff
.	.	.	16dd#XLL 16g#X\	.	.
.	.	.	16ff#X 16b#X\	.	.
.	.	.	16gg#X 16dd#\	.	.
.	.	.	16ff# 16b#\	.	.
.	.	.	16dd#JJ 16g#\	.	.
16c#X:/LL	4E: 4C#X: 4GG#:\	.	112%3r	.	.
.	.	.	(112%3e\LLL	.	.
.	.	.	112%3g#\	.	.
16G#X/JJ	.	.	.	.	.
.	.	.	112%3cc#X\	.	.
.	.	.	112%3dd#\	.	.
16E/LL	.	.	.	.	.
.	.	.	112%3ee\	.	[
.	.	.	112%3gg#\	.	.
16G#/	.	.	112%3ccc\	.	.
.	.	.	112%3ddd\	.	.
*	*	*	*X8va	*	*
.	.	.	112%3eee\	.	.
16E/	8ryy	.	.	.	.
.	.	.	112%3ggg\	.	.
.	.	.	112%3cccc\	.	.
16C#/JJ	.	.	.	.	.
.	.	.	112%3dddd\	.	.
.	.	.	112%3eeee\JJJ)	.	[[
*v	*v	*	*	*	*
*	*	*X8va	*	*
=68	=68	=68	=68	=68
*^	*	*	*	*
4.B#X: 4.F#X: 4.D#X: 4.GG#X:\	4.ryy	.	16r	.	ff
.	.	.	16dd#XLL 16g#X\	.	.
.	.	.	16ff#X 16b#X\	.	.
.	.	.	16gg 16dd#\	.	.
.	.	.	16ff# 16b#\	.	.
.	.	.	16dd#JJ 16g#\	.	.
16c#X:/LL	4E: 4C#X: 4GG#:\	.	112%3r	.	.
.	.	.	(112%3e\LLL	.	.
.	.	.	112%3g#\	.	.
16G#X/JJ	.	.	.	.	.
.	.	.	112%3cc#X\	.	.
.	.	.	112%3dd#\	.	.
16E/LL	.	.	.	.	.
.	.	.	112%3ee\	.	[
.	.	.	112%3gg\	.	.
16G#/	.	.	112%3ccc\	.	.
.	.	.	112%3ddd\	.	.
*	*	*	*X8va	*	*
.	.	.	112%3eee\	.	.
16E/	8ryy	.	.	.	.
.	.	.	112%3ggg\	.	.
.	.	.	112%3cccc\	.	.
16C#/JJ	.	.	.	.	.
.	.	.	112%3dddd\	.	.
.	.	.	112%3eeee\JJJ)	.	[[
*v	*v	*	*	*	*
*	*	*X8va	*	*
!!LO:LB:g=original
=69	=69	=69	=69	=69
*^	*	*	*	*
4.d#X: 4.F#X: 4.D#X: 4.BB:\	4.ryy	.	16r	.	sf
.	.	.	16ff#XLL 16a\	.	.
.	.	.	16gg#X 16dd#X\	.	.
.	.	.	16bb 16ff#\	.	.
.	.	.	16gg# 16dd#\	.	.
.	.	.	16ff#JJ 16b\	.	.
16e:/LL	4G#X: 4E: 4BB:\	.	80%3r	.	.
.	.	.	80%3g#X\LL	.	.
16B/JJ	.	.	.	.	.
.	.	.	80%3b\	.	.
.	.	.	80%3ee\	.	.
16G#/LL	.	.	.	.	.
.	.	.	80%3gg#\	.	.
16B/	.	.	80%3bb\	.	.
.	.	.	80%3eee\	.	.
16Gn/	8ryy	.	.	.	.
*	*	*	*8va	*	*
.	.	.	80%3ggg#X\	.	.
.	.	.	80%3bbb\	.	sf
16E/JJ	.	.	.	.	.
.	.	.	80%3eeee\JJ	.	.
*v	*v	*	*	*	*
*	*	*X8va	*	*
=70	=70	=70	=70	=70
*^	*	*	*	*
4.d#X: 4.F#X: 4.D#X: 4.BB:\	4.ryy	.	16r	.	.
.	.	.	16ff#XLL 16a\	.	.
.	.	.	16gg#X 16dd#X\	.	.
.	.	.	16bb 16ff#\	.	.
.	.	.	16gg# 16dd#\	.	.
.	.	.	16ff#JJ 16b\	.	.
16e:/LL	4G#X: 4E: 4BB:\	.	80%3r	.	.
.	.	.	80%3g#X\LL	.	.
16B/JJ	.	.	.	.	.
.	.	.	80%3b\	.	.
.	.	.	80%3ee\	.	.
16G#/LL	.	.	.	.	.
.	.	.	80%3gg#\	.	.
16B/	.	.	80%3bb\	.	.
.	.	.	80%3eee\	.	<
16G#/	8ryy	.	.	.	.
*	*	*	*8va	*	*
.	.	.	80%3ggg#X\	.	.
.	.	.	80%3bbb\	.	.
16E/JJ	.	.	.	.	.
.	.	.	80%3eeee\JJ	.	[[
*v	*v	*	*	*	*
*	*	*X8va	*	*
=71	=71	=71	=71	=71
*^	*	*	*	*
4.B/	2.BB\	.	16r	.	ff
.	.	.	16ff#XLL 16a\	.	.
.	.	.	16gg#X 16dd#X\	.	.
.	.	.	16bb 16ff#\	.	.
.	.	.	16gg# 16dd#\	.	.
.	.	.	16ff#JJ 16a\	.	.
4.dn/	.	.	16r	.	.
.	.	.	16bbLL 16ffn\	.	.
.	.	.	16dddn 16gg#\	.	.
.	.	.	16fff 16bb\	.	.
!	!	!	!LO:TX:b:t=ben pronunziato	!	!
.	.	.	16ddd 16gg#\	.	.
.	.	.	16bbJJ 16ff\	.	.
=72	=72	=72	=72	=72	=72
4.c#X/	2.BB\	.	16r	.	.
.	.	.	16aa#XLL 16ee\	.	.
.	.	.	16ccc#X 16gg\	.	.
.	.	.	16ggg 16ccc#\	.	.
.	.	.	16ccc# 16gg\	.	.
.	.	.	16aa#JJ 16ee\	.	.
16cn^/LL	.	.	16r	.	.
16A^/	.	.	16aanLL 16dd#X\	.	.
16F#X^/	.	.	16cccn 16ff#X\	.	.
16A^/	.	.	16ddd 16aa\	.	.
16F#^/	.	.	16ccc 16ff#\	.	.
16D#X^/JJ	.	.	16aaJJ 16ff#\	.	.
!!LO:PB:g=original
=73	=73	=73	=73	=73	=73
4.B/	2.BB\	.	16r	.	.
.	.	.	16gg#XLL 16dd\	.	.
.	.	.	16bb 16ffn\	.	.
.	.	.	16dddJJ 16gg#\	.	.
.	.	.	16bbLL 16ff\	.	.
.	.	.	16gg#JJ 16dd\	.	.
4.A#X/	.	.	16r	.	.
.	.	.	16gg#LL 16cc#X\	.	.
.	.	.	16aan 16ee\	.	.
.	.	.	16ccc 16gg#\	.	.
.	.	.	16aa 16ee\	.	.
.	.	.	16gg#JJ 16cc#\	.	.
=74	=74	=74	=74	=74	=74
4.An/	[2.BB\	.	16r	.	.
.	.	.	16ffLL 16ccn\	.	.
.	.	.	16aa 16dd#X\	.	.
.	.	.	16cccn 16ff\	.	.
.	.	.	16aa 16dd#\	.	.
.	.	.	16ff#XJJ 16cc\	.	.
16B/LL	.	.	16r	.	.
16G#X/	.	.	16ffnLL 16b\	.	.
16Fn/	.	.	16gg#X 16ddn\	.	.
16G#/	.	.	16bb 16ff\	.	.
16F/	.	.	16gg# 16dd\	.	.
16Dn/JJ	.	.	16ffJJ 16b\	.	.
=75	=75	=75	=75	=75	=75
4.Gn/	2.BB\]	.	16r	.	.
!	!	!	!LO:TX:b:t=sempre decres	!	!
.	.	.	16eeLL 16b-X\	.	.
.	.	.	16gg 16cc#X\	.	.
.	.	.	16bb-X 16gg\	.	.
.	.	.	16gg 16cc#\	.	.
.	.	.	16eeJJ 16b-\	.	.
4.F/	.	.	16r	.	.
.	.	.	16dd#XLL 16a\	.	.
.	.	.	16ff#X 16ccn\	.	.
.	.	.	16aa 16ff#\	.	.
.	.	.	16ff# 16cc\	.	.
.	.	.	16dd#JJ 16a\	.	.
=76	=76	=76	=76	=76	=76
4.Fn/	2.BB\	.	16r	.	.
.	.	.	16ddnLL 16g#X\	.	.
.	.	.	16ffn 16b\	.	.
.	.	.	16gg 16dd\	.	.
.	.	.	16ff 16b\	.	.
.	.	.	16ddJJ 16g#\	.	.
4.F#X/	.	.	16r	.	.
.	.	.	16dd#XLL 16a\	.	.
.	.	.	16ff#X 16ccn\	.	.
.	.	.	16aa 16ff#\	.	.
.	.	.	16ff# 16cc\	.	.
.	.	.	16dd#JJ 16a\	.	.
!!LO:LB:g=original
=77	=77	=77	=77	=77	=77
4.A/	2.BB\	.	16r	.	p
.	.	.	16f#XLL 16cn/	.	.
.	.	.	16a 16d#X/	.	.
.	.	.	16cc 16f#/	.	.
.	.	.	16a 16d#/	.	.
.	.	.	16f#JJ 16c/	.	.
4.F/	.	.	16r	.	.
.	.	.	16dd#XLL 16a\	.	.
.	.	.	16ff 16cc\	.	.
.	.	.	16aa 16ff\	.	.
.	.	.	16ff 16cc\	.	.
.	.	.	16dd#JJ 16a\	.	.
=78	=78	=78	=78	=78	=78
4.A/	2.BB\	.	16r	.	.
.	.	.	16f#XLL 16c/	.	.
.	.	.	16a 16d#X/	.	.
.	.	.	16ccJJ 16f#/	.	.
.	.	.	16aLL 16d#/	.	.
.	.	.	16f#JJ 16c/	.	.
4.F/	.	.	16r	.	.
*	*	*	*8va	*	*
.	.	.	16ff#XLL 16cc/	.	.
.	.	.	16aa 16dd#X/	.	.
.	.	.	16cccJJ 16ff#/	.	.
.	.	.	16aaLL 16dd#/	.	.
.	.	.	16ff#JJ 16cc/	.	.
*v	*v	*	*	*	*
*	*	*X8va	*	*
=79	=79	=79	=79	=79
*^	*	*	*	*
4.D#X/	2.BB\	.	16r	.	pp
.	.	.	16fLL 16B/	.	.
.	.	.	16a 16d#X/	.	.
.	.	.	16bJJ 16f/	.	.
.	.	.	16aLL 16d#/	.	.
.	.	.	16fJJ 16B/	.	.
[4.BB/	.	.	16r	.	.
.	.	.	16f 16B/	.	.
.	.	.	16aLL 16d#/	.	.
.	.	.	16b 16f/	.	.
.	.	.	16a 16d#/	.	.
.	.	.	16fJJ 16B/	.	.
*v	*v	*	*	*	*
=80	=80	=80	=80	=80
*	*	*^	*	*
2.BB] 2.BBB\	.	4ryy	16r	.	.
*	*	*	*ped	*	*
.	.	.	(16b\LL	.	.
.	.	.	16ff#X 16dd#X\	.	.
.	.	.	16bb\JJ	.	.
.	.	16ryy	16ff#LL 16dd#\	.	.
!	!	!LO:N:vis=8	!	!	!
.	.	8.a/L	16a#X\	.	.
*	*	*	*Xped	*	*
.	.	.	16bb\	.	.
.	.	.	16ff# 16dd#\	.	.
!	!	!LO:N:vis=8	!	!	!
.	.	8.a#/	16an\	.	.
.	.	.	16bb\	.	.
.	.	.	16ff# 16dd#\	.	.
!	!	!LO:N:vis=8	!	!	!
.	.	16g/Jk	16g#X\JJ)	.	.
!!LO:LB:g=original
=81	=81	=81	=81	=81	=81
2.BB\	.	8ryy	16bb\LL	.	.
!	!	!LO:TX:b:t=rallent	!	!	!
.	.	.	16ff#X 16dd#X\	.	.
!	!	!LO:N:vis=8	!	!	!
.	.	8.g/L	16gn\	.	.
.	.	.	16bb\JJ	.	.
.	.	.	16ff#LL 16dd#\	.	.
!	!	!LO:N:vis=8	!	!	!
.	.	8.f/	16f\	.	.
.	.	.	16bb\	.	.
.	.	.	16ff#J 16dd#\	.	.
!	!	!LO:N:vis=8	!	!	!
.	.	8.d/J	8d#X\J	.	.
.	.	.	32B\LLL	.	.
.	.	.	32A\	.	.
.	.	16ryy	32G\	.	.
.	.	.	32F#X\JJJ	.	.
=82||	=82||	=82||	=82||	=82||	=82||
4G: 4BB: 4EE:\	.	16r	4e\	.	.
!	!	!LO:TX:b:t=a tempo	!	!	!
.	.	(16eeLL 16g/	.	.	fp
.	.	16ff 16b/	.	.	.
.	.	16ggJJ 16ee/	.	.	.
8r	.	16ffLL 16b/	8ryy	.	.
.	.	16eeJJ 16g/)	.	.	.
(16gLL 16e\	.	8.r	8ryy	.	.
16fJJ 16B\)	.	.	.	.	.
16e 16G\	.	.	4ryy	.	.
8ryy	.	16B^/LL	.	.	.
.	.	16G^/	.	.	.
48AA\LLL	.	16A^/JJ	.	.	.
48GG\	.	.	.	.	.
48FF\JJJ	.	.	.	.	.
=83	=83	=83	=83	=83	=83
8E 8EE\	.	16r	4B 4G/	.	p
.	.	(16eeLL 16g/	.	.	.
8r	.	16ff 16b/	.	.	.
.	.	16ggJJ 16ee/	.	.	.
8r	.	16ffLL 16b/	4r	.	.
.	.	16eeJJ 16g/)	.	.	.
16gLL 16e\	.	8.r	.	.	.
16aJJ 16B\	.	.	.	.	.
16e 16G\	.	.	4r	.	.
8ryy	.	16BLL 16G^/	.	.	.
.	.	16A 16F^/	.	.	.
48EE\LLL	.	16GJJ 16E^/	.	.	.
48DD#X\	.	.	.	.	.
48EE\JJJ	.	.	.	.	.
=84	=84	=84	=84	=84	=84
8BB: 8BBB:\	.	16r	4B: 4D#X:/	.	p
.	.	(16ffLL 16b/	.	.	.
8r	.	16gg 16dd#X/	.	.	.
.	.	16bbJJ 16ff/	.	.	.
8ryy	.	16ggLL 16dd#/	8ryy	.	.
.	.	16ffJJ 16b/)	.	.	.
16bLL 16d#X\	.	8.r	8ryy	.	.
16f\JJ	.	.	.	.	.
8B\L	1	.	4ryy	.	.
.	.	16A/LL	.	.	>
.	.	8qA/	.	.	.
8BB\J	5	16G/	.	.	.
.	.	16F/JJ	.	.	.
!!LO:LB:g=original
=85	=85	=85	=85	=85	=85
4E 4EE\	.	16r	4G 4E\	.	] p
.	.	(16eeLL 16g/	.	.	.
.	.	16ff 16b/	.	.	.
.	.	16ggJJ 16ee/	.	.	.
8ryy	.	16ffLL 16b/	4r	.	.
.	.	16eeJJ 16g/)	.	.	.
16gLL 16e\L	.	8.r	.	.	.
16fJJ 16B\	.	.	.	.	.
16e 16G\J	.	.	4r	.	.
16ryy	.	(16B/LL	.	.	.
16r	.	16G/	.	.	.
48BB\L	.	16A/JJ)	.	.	.
48AA#\X	.	.	.	.	.
48BB\	.	.	.	.	.
=86	=86	=86	=86	=86	=86
8E 8EE\J	.	16r	4B 4G\	.	.
.	.	(16eeLL 16g/	.	.	.
8ryy	.	16ff 16b/	.	.	.
.	.	16ggJJ 16ee/	.	.	.
8r	.	16ffLL 16b/	8ryy	.	.
.	.	16eeJJ 16g/)	.	.	.
16gLL 16e\	.	8.r	8ryy	.	.
16fJJ 16B\	.	.	.	.	.
16e 16G\	.	.	4ryy	.	.
!	!	!LO:TX:t=P:problem:mixed beam	!	!	!
8ryy	.	16e/LL	.	.	.
.	.	16G^/	.	.	.
48AA\LLL	.	16A^/JJ	.	.	.
48GG\	.	.	.	.	.
48FF\JJJ	.	.	.	.	.
=87	=87	=87	=87	=87	=87
4E 4EE\	.	16r	4B 4G\	.	f
.	.	16eeLL 16g/	.	.	.
.	.	16ff 16b/	.	.	.
.	.	16ggJJ 16ee/	.	.	.
*	*	*v	*v	*	*
8r	.	16ffLL 16b/	.	.
.	.	16eeJJ 16g/	.	.
16gLL 16e\	.	8.r	.	.
16fJJ 16B\	.	.	.	.
16e 16G\	.	.	.	.
8r	.	16B/LL	.	.
.	.	16.e^/	.	.
(48EE/LLL	.	.	.	.
48FF/	.	.	.	.
.	.	32d/JJk	.	.
48GG#X/JJJ	.	.	.	.
=88	=88	=88	=88	=88
*	*	*^	*	*
4AA/)	.	16c/LL	4B 4G\	.	p
.	.	16aa 16cc/	.	.	<
.	.	16bb 16ee/	.	.	.
.	.	16cccJJ 16aa/	.	.	.
*^	*	*v	*v	*	*
8r	8ryy	.	16bbLL 16ee/	.	.
.	.	.	16aaJJ 16cc/	.	[
*v	*v	*	*	*	*
16bLL 16d#X\	.	8.r	.	.
16f\JJ	.	.	.	.
8.B\L	.	.	.	.
.	.	16A/LL	.	sf
.	.	8qA/	.	.
.	.	16G/	.	.
48BB\LL	.	16F/JJ	.	.
48C#X\	.	.	.	.
48D#X\JJJ	.	.	.	.
!!LO:LB:g=original
=89	=89	=89	=89	=89
4E 4EE\	.	16G/LL	.	.
.	.	16ee 16g/	.	f
.	.	16ff 16b/	.	.
.	.	16ggJJ 16ee/	.	.
8r	.	16ffLL 16b/	.	.
.	.	16eeJJ 16g/	.	.
16bLL 16d#X\	.	8.r	.	.
16f\JJ	.	.	.	.
16b 16G\	.	.	.	.
8.r	.	16eLL 16E/	.	.
.	.	16e 16E/	.	.
.	.	16eJJ 16E/	.	.
=90	=90	=90	=90	=90
*	*	*^	*	*
*	*	*	*ped	*	*
4C 4CC\	.	16r	4e 4c 4G\	.	.
.	.	16cccLL 16ee/	.	.	fp
.	.	16ddd 16aa/	.	.	.
.	.	16eeeJJ 16ccc/	.	.	.
8r	.	16dddLL 16aa/	4ryy	.	.
.	.	16cccJJ 16ee/	.	.	.
16ccLL 16e\	.	8.r	.	.	.
16g\JJ	.	.	.	.	.
16c\	.	.	4r	.	.
8r	.	16c/LL	.	.	.
.	.	16G/	.	.	.
48C\LLL	.	16A/JJ	.	.	.
48BB\	.	.	.	.	.
48C\JJJ	.	.	.	.	.
*	*	*Xped	*	*	*
=91	=91	=91	=91	=91	=91
*	*	*ped	*	*	*
4G 4GG\	.	16r	4B/	.	.
.	.	16bbLL 16dd\	.	.	.
.	.	16ccc 16gg\	.	.	.
.	.	16ddd 16bb\	.	.	.
8r	.	16ccc 16gg\	4ryy	.	.
.	.	16bbJJ 16dd\	.	.	.
(16bLL 16d\	.	8.r	.	.	.
16g\JJ	.	.	.	.	.
16B\)	.	.	4r	.	.
8.r	.	16B/LL	.	.	.
.	.	16A/	.	.	.
.	.	16G/JJ	.	.	.
*	*	*Xped	*	*	*
=92	=92	=92	=92	=92	=92
!	!	!LO:TX:a:t=P:problem:mixed beam	!	!	!
4BB: 4BBB:\	.	16r	L16E 16C#X/	.	.
.	.	(16ffLL 16a\	8.ryy	.	.
.	.	16gg 16dd#X\	.	.	.
.	.	16bbJJ 16ee\	.	.	.
8r	.	16ggLL 16dd#\	4ryy	.	.
.	.	16ffJJ 16a\)J	.	.	.
16ddLL 16d#X\	.	8.r	.	.	.
16f\JJ	.	.	.	.	.
16B\	.	.	4ryy	.	.
16ryy	.	16ALL 16F/	.	.	.
.	.	8qA/	.	.	.
16ryy	.	16G 16E/	.	.	.
48BB\LLL	.	16F/JJ	.	.	.
48C#X\	.	.	.	.	.
48D#X\JJJ	.	.	.	.	.
!!LO:LB:g=original
=93	=93	=93	=93	=93	=93
*	*	*	*ped	*	*
4E 4EE\	.	16r	4G/	.	.
.	.	16eeLL 16g/	.	.	.
.	.	16ff 16b/	.	.	.
.	.	16ggJJ 16ee/	.	.	.
8r	.	16ffLL 16b/	4ryy	.	.
.	.	16eeJJ 16g/	.	.	.
16gLL 16e\	.	8.r	.	.	.
16fJJ 16B\	.	.	.	.	.
16e 16G\	.	.	4ryy	.	.
8.r	.	16eLL 16E/	.	.	.
.	.	16e 16E/	.	.	.
.	.	16eJJ 16E/	.	.	.
=94	=94	=94	=94	=94	=94
4C 4CC\	.	16ryy	4e 4c 4G 4E/	.	.
.	.	16cccLL 16ee/	.	.	f
.	.	16ddd 16gg/	.	.	.
.	.	16eeeJJ 16ccc/	.	.	.
8r	.	16dddLL 16gg\	4ryy	.	.
.	.	16cccJJ 16ee\	.	.	.
16ccLL 16e\	.	8.r	.	.	.
16g\JJ	.	.	.	.	.
16c\	.	.	4ryy	.	.
*	*	*Xped	*	*	*
8r	.	16G/LL	.	.	.
.	.	16G/	.	.	.
48C\LLL	.	16A/JJ	.	.	.
48BB\	.	.	.	.	.
48C\JJJ	.	.	.	.	.
=95	=95	=95	=95	=95	=95
4G 4GG\	.	16r	4B/	.	p
.	.	16ggLL 16b/	.	.	.
.	.	16aa 16dd/	.	.	.
.	.	16bbJJ 16gg/	.	.	.
8ryy	.	16aaLL 16dd/	4ryy	.	.
.	.	16ggJJ 16b/	.	.	.
16bLL 16d\	.	8.r	.	.	.
16g\JJ	.	.	.	.	.
16c\	.	.	4ryy	.	.
8.r	.	16B/LL	.	.	<
.	.	16A#X/	.	.	.
.	.	16B/JJ	.	.	[
=96	=96	=96	=96	=96	=96
*	*	*ped	*	*	*
4F 4FF\	.	16r	4A#X/	.	.
.	.	16aa#XLL 16ee/	.	.	.
.	.	16ccc#X 16aa#/	.	.	.
.	.	16eeeJJ 16ccc#/	.	.	.
8r	.	16ccc#LL 16aa#/	4ryy	.	.
.	.	16aa#JJ 16ee/	.	.	.
16a#X\LL	.	8.r	.	.	.
16f#X\JJ	.	.	.	.	.
!	!	!	!	!	!LO:DY:a
8f#\L	4	.	4ryy	.	sf
.	.	16e/LL	.	.	.
.	.	8qe/	.	.	.
8F#\J	1	16d#X/	.	.	.
.	.	16c#X/JJ	.	.	.
*	*	*Xped	*	*	*
!!LO:PB:g=original
=97	=97	=97	=97	=97	=97
4BB/	.	16r	4B\	.	.
.	.	16ff#XLL 16b/	.	.	p
.	.	16gg#X 16dd#X/	.	.	.
.	.	16bbJJ 16ff#/	.	.	.
8r	.	16gg#LL 16dd#/	4ryy	.	.
.	.	16ff#JJ 16b/	.	.	.
16bLL 16d#X\	.	8.r	.	.	<
16f\JJ	.	.	.	.	.
16B\	.	.	4ryy	.	.
8.r	.	16bLL 16B/	.	.	.
.	.	16b 16B/	.	.	.
.	.	16bJJ 16B/	.	.	.
*	*	*v	*v	*	*
=98	=98	=98	=98	=98
*	*	*ped	*	*
4.E 4.EE\	.	16b 16g 16e 16B/	.	ff
!	!	!LO:TX:b:t=martel	!	!
.	.	16dddLL 16gg/	.	.
.	.	16fff 16bb/	.	.
.	.	16gggJJ 16eee/	.	.
.	.	16fffLL 16bb/	.	.
.	.	16eeeJJ 16gg/	.	.
16eeLL 16b 16g\	.	8.r	.	.
16bJJ 16g\	.	.	.	.
16g 16e\	.	.	.	.
16r	.	16b 16B/	.	.
16g 16G\	.	16r	.	.
(64BB\LLLL	.	16a 16A/	.	.
64AA\	.	.	.	.
64GG\	.	.	.	.
64FF\JJJJ)	.	.	.	.
=99	=99	=99	=99	=99
4EE\	.	16b 16B/	.	.
.	.	16dddLL 16gg/	.	.
.	.	16fff#X 16bb/	.	.
.	.	16gggJJ 16eee/	.	.
8r	.	16fff#LL 16bb/	.	.
.	.	16eeeJJ 16gg/	.	.
16eeLL 16b 16g\	.	8.r	.	.
16bJJ 16g\	.	.	.	.
16g 16e\	.	.	.	.
16r	.	16b 16B/	.	.
16a 16A\	.	16r	.	.
48EE/LLL	.	16g 16G/	.	.
48DD#X/	.	.	.	.
48EE/JJJ	.	.	.	.
=100	=100	=100	=100	=100
4D#X 4BBB\	.	16f 16F/	.	.
*	*	*8va	*	*
.	.	16fffLL 16bb/	.	.
.	.	16ggg 16ddd#X/	.	.
.	.	16bbbJJ 16fff/	.	.
8r	.	16gggLL 16ddd#/	.	.
.	.	16fffJJ 16bb/	.	.
*	*	*X8va	*	*
!LO:TX:b:t=m.g.	!	!	!	!
16bbLL 16dd\	.	8ryy	.	.
16ff#X\JJ	.	.	.	.
!	!	!LO:TX:b:t=m.d.	!	!
16b\	.	16B/LL	.	.
16r	.	16aJJ 16A/	.	.
16g 16G\	.	16r	.	.
48BB\LLL	.	16f 16F/	.	.
48C#X\	.	.	.	.
48D#X\JJJ	.	.	.	.
!!LO:LB:g=original
=101	=101	=101	=101	=101
4E\	.	16g 16G/	.	.
.	.	16eeeLL 16gg/	.	.
.	.	16fff 16bb/	.	.
.	.	16gggJJ 16eee/	.	.
8r	.	16fffLL 16bb/	.	.
.	.	16eeeJJ 16gg/	.	.
16eeLL 16g\	.	8.r	.	.
16b\JJ	.	.	.	.
16e\	.	.	.	.
16r	.	16b 16B/	.	.
16g 16G\	.	16r	.	.
64BB\LLLL	.	16a 16A/	.	.
64AA\	.	.	.	.
64GG\	.	.	.	.
64FF\JJJJ	.	.	.	.
=102	=102	=102	=102	=102
4EE\)	.	16b 16g 16B/	.	.
.	.	16eeeLL 16gg/	.	.
.	.	16fff 16bb/	.	.
.	.	16gggJJ 16eee/	.	.
8r	.	16fffLL 16bb/	.	.
.	.	16eeeJJ 16gg/	.	.
16eeLL 16b 16g\	.	8.r	.	.
16bJJ 16g\	.	.	.	.
16g 16e\	.	.	.	.
16r	.	16b 16B/	.	.
16g 16G\	.	16r	.	.
(64BB\LLLL	.	16a 16A/	.	.
64AA\	.	.	.	.
64GG\	.	.	.	.
64FF\JJJJ	.	.	.	.
=103	=103	=103	=103	=103
4EE\)	.	16b 16g 16B/	.	.
.	.	16eeeLL 16gg/	.	.
.	.	16ggg 16bb/	.	.
.	.	16gggJJ 16eee/	.	.
8r	.	16gggLL 16bb/	.	.
.	.	16eeeJJ 16gg/	.	.
16eeLL 16b 16g\	.	8.r	.	.
16bJJ 16g\	.	.	.	.
16g 16e\	.	.	.	.
16r	.	16b 16B/	.	.
16r	.	16ee 16e/	.	.
48E\LLL	.	16dd 16d/	.	sf
48F\	.	.	.	.
48G#X\JJJ	.	.	.	.
=104	=104	=104	=104	=104
4A 4AA\	.	16cc 16c/	.	.
.	.	(16aaLL 16cc/	.	.
.	.	16bb 16ee/	.	.
.	.	16cccJJ 16aa/	.	.
8r	.	16bbLL 16ee/	.	.
.	.	16aaJJ 16cc/)	.	.
16bLL 16d#X\	.	8.r	.	.
16f#X\JJ	.	.	.	.
16B\	.	.	.	.
16r	.	16a 16A/	.	.
16g 16G\	.	16r	.	.
48BB\LLL	.	16f#X 16F#X/	.	.
48C#X\	.	.	.	.
48D#X\JJJ	.	.	.	.
!!LO:LB:g=original
=105	=105	=105	=105	=105
4E 4EE\	.	16g 16G/	.	>
.	.	16eeLL 16g/	.	.
.	.	16ff#X 16b/	.	.
.	.	16ggJJ 16ee/	.	.
8r	.	16ff#LL 16b/	.	.
.	.	16eeJJ 16g/	.	.
16gLL 16e\	.	8.r	.	.
16f#XJJ 16B\	.	.	.	.
16e 16G\	.	.	.	.
8.r	.	16eLL 16E/	.	.
.	.	16e 16E/	.	.
.	.	16eJJ 16E/	.	.
=106	=106	=106	=106	=106
*	*	*ped	*	*
4EE 4EEE\	.	16e 16d 16B 16G#X 16E/	.	.
.	.	(16bbLL 16ee/	.	.
.	.	16ddd 16gg#X/	.	.
.	.	16eeeJJ 16bb/	.	.
8r	.	16dddLL 16gg#/	.	.
.	.	16bbJJ 16ee/)	.	.
16eeLL 16g#X\	.	8.r	.	.
16b\JJ	.	.	.	.
16e\	.	.	.	.
8r	.	(16fnLL 16d/	.	.
.	.	16e 16c/	.	.
(48E\LLL	.	16dJJ 16B/)	.	.
48F#X\	.	.	.	.
48G#X\JJJ)	.	.	.	.
*	*	*Xped	*	*
=107	=107	=107	=107	=107
*	*	*ped	*	*
4A\	.	16c/	.	sf
.	.	(16aaLL 16cc/	.	.
.	.	16bb 16ee/	.	.
.	.	16cccJJ 16aa/	.	.
8r	.	16bbLL 16ee/	.	.
.	.	16aaJJ 16cc/)	.	.
16aLL 16c\	.	8.r	.	.
16e\JJ	.	.	.	.
16A\	.	.	.	.
8.r	.	16c/LL	.	.
.	.	16G/	.	.
.	.	16A/JJ	.	.
*	*	*Xped	*	*
=108	=108	=108	=108	=108
*	*	*^	*	*
4BB 4BBB\	.	16r	4B 4G\	.	p
.	.	(16ggLL 16b/	.	.	.
.	.	16aa 16ee/	.	.	.
.	.	16bbJJ 16gg/	.	.	.
8r	.	16aaLL 16ee/	4ryy	.	.
.	.	16ggJJ 16b/)	.	.	.
16bLL 16d#X\	.	8.r	.	.	.
16f\JJ	.	.	.	.	.
16B\	.	.	4ryy	.	.
16ryy	.	16a 16A/	.	.	.
16g 16G\	.	16r	.	.	.
48BB\LLL	.	16f 16F/	.	.	.
48C#X\	.	.	.	.	.
48D#X\JJJ	.	.	.	.	.
*	*	*v	*v	*	*
!!LO:LB:g=original
=109	=109	=109	=109	=109
4E\	.	16g 16G/	.	sf
.	.	16ggLL 16b/	.	.
.	.	16aa 16ee/	.	.
.	.	16bbJJ 16gg/	.	.
8r	.	16aaLL 16ee\	.	.
!	!	!LO:TX:b:t=smorz	!	!
.	.	16ggJJ 16b\	.	.
16eeLL 16g\	.	8.r	.	.
16b\JJ	.	.	.	.
16e\	.	.	.	.
8.r	.	16eLL 16E^/	.	.
.	.	16e 16E^/	.	.
.	.	16eJJ 16E^/	.	.
=110	=110	=110	=110	=110
*^	*	*	*	*
*	*^	*	*	*	*
4.EE 4.EEE\	4.ryy	4.ryy	.	16e 16d 16B 16G#X 16E/	.	sf
*	*	*	*	*ped	*	*
.	.	.	.	16bbLL 16ee/	.	.
.	.	.	.	16ddd 16gg#X/	.	.
.	.	.	.	16eeeJJ 16bb/	.	.
.	.	.	.	16dddLL 16gg#/	.	.
.	.	.	.	16bbJJ 16ee/	.	.
4.d 4.B 4.G#X 4.E/	8ryy	8rFyy	.	16r	.	.
.	.	.	.	16fffnLL 16ffn'/	.	.
.	16r	16ryy	.	16eee 16ccc 16ee'/	.	.
.	16EE\LL	16E/LL	.	16dddJJ 16bb 16dd'/	.	f
.	16EE\JJ	16E/	.	16cccLL 16aa 16cc'/	.	.
.	48EE\LLL	16E/JJ	.	16bbJJ 16gg# 16dd'/	.	.
*	*	*	*	*Xped	*	*
.	48FF#X\	.	.	.	.	.
.	48GG#X\JJJ	.	.	.	.	.
=111	=111	=111	=111	=111	=111	=111
*	*	*	*	*ped	*	*
4AA/	4ryy	2.r	.	16ccc 16aa 16cc\	.	.
.	.	.	.	(16cccLL 16ee/	.	.
.	.	.	.	16ddd 16aa/	.	.
.	.	.	.	16eeeJJ 16ccc/	.	.
8r	8ryy	.	.	16dddLL 16aa/	.	.
.	.	.	.	16cccJJ 16ee/)	.	.
4.cc 4.a 4.e 4.c/	8.ryy	.	.	16r	.	.
.	.	.	.	(16eeeLL 16ccc 16ee'/	.	.
.	.	.	.	16ddd 16bb 16dd'/	.	.
.	16AALL 16AAA/	.	.	16ccc 16aa 16cc'/	.	f
.	16AAJJ 16AAA/	.	.	16bb 16gg 16b'/	.	.
.	48AAA/LLL	.	.	16aaJJ 16ff 16a'/	.	.
.	48BB/	.	.	.	.	.
*	*	*	*	*Xped	*	*
.	48C/JJJ	.	.	.	.	.
*	*v	*v	*	*	*	*
=112	=112	=112	=112	=112	=112
4BB 4BBB/	2.r	.	16gg 16ee 16g/)	.	.
.	.	.	(16ggLL 16b/	.	.
.	.	.	16aa 16ee/	.	.
.	.	.	16bbJJ 16gg/	.	.
8r	.	.	16aaLL 16ee/	.	.
.	.	.	16ggJJ 16b/)	.	.
16bLL 16d#X\	.	.	8.ryy	.	.
16f\JJ	.	.	.	.	>
16B\	.	.	.	.	.
16r	.	.	16a 16A/	.	.
16g 16G/	.	.	16r	.	.
48BBB\LLL	.	.	16f 16F/	.	.
48CC#X\	.	.	.	.	.
48DD#X\JJJ	.	.	.	.	.
!!LO:LB:g=original
=113	=113	=113	=113	=113	=113
4EE/	4ryy	.	16g 16G/	.	p
.	.	.	16eeLL 16g/	.	.
.	.	.	16ff 16b/	.	.
.	.	.	16ggJJ 16ee/	.	.
8r	8ryy	.	16ffLL 16b/	.	.
.	.	.	16eeJJ 16g/	.	.
16gLL 16e\	4ryy	.	8.r	.	.
16fJJ 16B\	.	.	.	.	.
16e 16G\	.	.	.	.	.
8r	.	.	16B/LL	.	.
.	16ryy	.	16G/	.	.
48F/LLL	16FF\	.	16A/JJ	.	.
48E/	.	.	.	.	.
48D/JJJ	.	.	.	.	.
=114	=114	=114	=114	=114	=114
*	*	*	*ped	*	*
4G 4GG\	2.r	.	16B/	.	.
.	.	.	(16ggLL 16b/	.	.
.	.	.	16aa 16dd/	.	.
.	.	.	16bbJJ 16gg/	.	.
8r	.	.	16aaLL 16dd/	.	.
.	.	.	16ggJJ 16b/)	.	.
16bLL 16d/	.	.	8.r	.	.
16g/JJ	.	.	.	.	.
16B/	.	.	.	.	.
8r	.	.	16.B/LL	.	.
.	.	.	32G/K	.	.
48BB\L	.	.	16A/JJ	.	.
48AA#X\	.	.	.	.	.
*	*	*	*Xped	*	*
48BB\	.	.	.	.	.
=115	=115	=115	=115	=115	=115
8EE\J	4ryy	.	16E/	.	p
.	.	.	(16eeLL 16g/	.	.
8ryy	.	.	16ff 16b/	.	.
.	.	.	16ggJJ 16ee/	.	.
8ryy	8ryy	.	16ffLL 16b/	.	.
.	.	.	16eeJJ 16g/)	.	.
16gLL 16e\	4ryy	.	8.r	.	.
16fJJ 16B\	.	.	.	.	.
16e 16G\	.	.	.	.	.
8r	.	.	16B/LL	.	.
.	16ryy	.	16G/	.	.
48F\LLL	16FF\	.	16A/JJ	.	f
48E\	.	.	.	.	.
48D\JJJ	.	.	.	.	.
=116	=116	=116	=116	=116	=116
*	*	*	*ped	*	*
4G 4GG\	2.r	.	16B/	.	.
.	.	.	(16ggLL 16b/	.	.
.	.	.	16aa 16dd/	.	.
.	.	.	16bbJJ 16gg/	.	.
8r	.	.	16aaLL 16dd/	.	.
.	.	.	16ggJJ 16b/)	.	.
16bLL 16d/	.	.	8.r	.	.
16g/JJ	.	.	.	.	.
16B/	.	.	.	.	.
8r	.	.	16.B/LL	.	.
.	.	.	32F/K	.	.
48BB\LLL	.	.	16G/JJ	.	p
48AA#X\	.	.	.	.	.
48BB\JJJ	.	.	.	.	.
*v	*v	*	*	*	*
*	*	*Xped	*	*
=117	=117	=117	=117	=117
4EE\	.	(16eeLL 16g/	.	pp
.	.	16ff 16b/	.	.
.	.	16ggJJ 16ee/	.	.
.	.	16ffLL 16b/	.	.
8r	.	16eeJJ 16g/)	.	.
.	.	8.r	.	.
16gLL 16e\	.	.	.	.
16fJJ 16B\	.	.	.	.
16e 16G\	.	16ryy	.	.
16r	.	16B/LL	.	.
8BB/	.	16F/	.	.
.	.	16G/JJ	.	.
=118	=118	=118	=118	=118
8EE/	.	16E/	.	.
.	.	(16eeLL 16g/	.	.
8r	.	16ff 16b/	.	.
.	.	16ggJJ 16ee/	.	.
8r	.	16ffLL 16b/	.	.
.	.	16eeJJ 16g/)	.	.
16gLL 16e\	.	8.r	.	.
16fJJ 16B\	.	.	.	.
16e 16G\	.	.	.	.
16r	.	16B/LL	.	.
16r	.	16A#X/	.	.
16GG#X\	.	16B/JJ	.	.
=119	=119	=119	=119	=119
!	!	!LO:TX:b:t=sotto voce	!	!
8.AA\L	.	8.cL 8.Fn^/	.	.
16AA\L	.	16cL 16F/	.	.
16AA\	.	16c 16F/	.	.
16AA-X\JJ	.	16cJJ 16F#X 16E-X/	.	.
8GG/	.	8c 8G 8En/	.	.
8GG\	.	8B 8Fn 8D/	.	.
8r	.	8r	.	.
=120	=120	=120	=120	=120
*	*	*^	*	*
!	!	!LO:TX:b:t=ten	!	!	!
2BBB\	.	8r	2d#X: 2B: 2F:\	.	.
!	!	!LO:TX:b:t=rall	!	!	!
.	.	(16dd#X/LL	.	.	pp
.	.	16ff/	.	.	.
.	.	16bb/	.	.	.
.	.	16ff/JJ	.	.	.
.	.	16dd#\LL	.	.	.
.	.	16ff\	.	.	.
4r	.	16bb\	4ryy	.	.
.	.	16ddd\	.	.	.
.	.	16fff\)	.	.	.
.	.	16bbb\JJ	.	.	.
*	*	*v	*v	*	*
=121	=121	=121	=121	=121
2E 2EE\	.	16r	.	.
.	.	16eLL 16G/	.	.
.	.	16f 16B/	.	.
.	.	16gJJ 16e/	.	.
.	.	16fLL 16B/	.	.
.	.	16e 16G/	.	.
.	.	16G 16E/	.	.
.	.	16FJJ 16BB/	.	.
8.EE\L	.	8.EL 8.GG/	.	.
16EE\Jk	.	16EJk 16BB 16GG/	.	.
=122	=122	=122	=122	=122
2EE;\	.	2E 2BB 2GG;/	.	.
4r	.	4r	.	.
==	==	==	==	==
*-	*-	*-	*-	*-
!!!system-decoration: [(s1,s2)]
!!!ENC: Berenika Jozajtis
!!!END: 2022-07-17
!!!ENC: Urszula Świątek
!!!END: 2022-08-18
